X:1508
T:Middling, Thank You
P:Middling, Thank You
C:Traditional?
R:Jig (8x40) AABAB
B:RSCDS 15-8
Z:Anselm Lingnau <anselm@strathspey.org>
M:6/8
L:1/8
K:G
"G"dcB "Bm/F#"d2B|"Em7"d2B "G/D"gfe|"G"dcB "Bm/F#"d2 B|"C/E"c2A "D7"FED|
"G"dcB "Bm/F#"d2B|"Em7"d2B "G/D"gfe|"G/B"dcB "C"c2A|"D"FEF "G"G3||
"Em"gag "B7"f2g|"C"efe "G"dBG|"C"gag "A7"f2g|"D7"afd "G"G3|
"Em"gag "B7"f2g|"C"efe "G"dBG|"C"ABA "A7"e2e|"D"dcA "G"G3|]
